img/logo.svg

<svg xmlns="http://www.w3.org/2000/svg" width="480" height="420" viewBox="0, 0, 480, 420"><g fill="#282832"><path d="M46.607 241.711c13.393-10.711 193.627-167.033 193.627-167.033l192.432 166.228s8.26 8.223 16.547 3.283c8.287-4.939 21.65-18.994 22.844-21.591 1.193-2.598 1.267-7.504-2.645-13.676-3.912-6.172-206.33-179.223-217.871-189.322-11.541-10.1-22.613.543-22.613.543s-197.94 171.263-211.434 183.06c-18.494 13.797-4.719 23.395-4.719 23.395l12.676 14.547s7.764 11.277 21.156.566zM341.374 75.1l58.099 49.17s.675-49.887.101-65.912c-.574-16.025-14.017-14.712-14.017-14.712l-28.484-.363s-15.38-.9-15.727 12.742c-.346 13.642.028 19.075.028 19.075zM240.354 99.279l173.787 151.25s.526 90.471.192 124.471c-.333 34-35.373 30.764-35.373 30.764l-277.011-.217s-35.66 6.229-35.804-34.992c-.145-41.222-.088-120.159-.088-120.159zm-33.11 131.498h-21.146c-1.744 0-2.881.909-3.411 2.728-.91 3.487-1.781 9.323-2.615 17.508-3.259 1.061-6.177 2.274-8.754 3.638l-13.074-10.232c-.758-.53-1.554-.796-2.387-.796-1.441 0-4.434 2.236-8.982 6.708-4.547 4.472-7.655 7.844-9.322 10.118-.531.607-.796 1.365-.796 2.274 0 .682.265 1.44.796 2.274 4.244 5.078 7.655 9.436 10.232 13.074-1.592 3.107-2.805 5.987-3.638 8.64l-17.622 2.729c-.682.076-1.289.473-1.819 1.193-.531.72-.796 1.459-.796 2.217v21.033c0 .833.265 1.572.796 2.217.53.644 1.175 1.004 1.933 1.08l17.28 2.728c.91 2.88 2.236 5.988 3.979 9.323-1.212 1.667-2.993 3.979-5.343 6.935-2.35 2.955-3.903 4.964-4.661 6.025-.531.758-.796 1.478-.796 2.16 0 2.046 5.457 8.11 16.371 18.19.758.607 1.554.91 2.388.91.985 0 1.743-.266 2.273-.796l13.415-10.118c3.108 1.591 5.95 2.766 8.527 3.524l2.615 17.394c.076.758.455 1.421 1.137 1.99.682.568 1.44.852 2.274.852h21.145c1.744 0 2.881-.909 3.411-2.728.91-3.562 1.781-9.436 2.615-17.622 3.032-.909 5.95-2.084 8.754-3.524l13.074 10.232c.758.53 1.554.796 2.388.796 1.44 0 4.414-2.255 8.924-6.765 4.51-4.509 7.636-7.901 9.379-10.175.531-.53.796-1.25.796-2.16 0-.758-.265-1.516-.796-2.274-4.244-5.078-7.655-9.436-10.232-13.074 1.592-3.107 2.805-5.987 3.638-8.64l17.622-2.729c.682-.075 1.289-.473 1.819-1.193.531-.72.796-1.459.796-2.217v-21.033c0-.833-.265-1.572-.796-2.216-.53-.645-1.175-1.043-1.933-1.194l-17.28-2.615c-.834-2.577-2.122-5.684-3.866-9.322 1.137-1.668 2.843-3.942 5.116-6.822 2.274-2.88 3.866-4.926 4.775-6.139.531-.758.796-1.478.796-2.16 0-2.046-5.457-8.11-16.371-18.19-.758-.606-1.554-.91-2.387-.91-.91 0-1.668.266-2.274.796l-13.415 10.118c-3.108-1.591-5.95-2.766-8.527-3.524l-2.615-17.394c-.076-.758-.455-1.421-1.137-1.99-.682-.568-1.44-.852-2.273-.852zm105.843-27.286l-.682.228c-3.107 3.107-6.594 7.352-10.459 12.733-1.516-.152-2.653-.227-3.411-.227s-1.895.075-3.41.227c-1.062-1.592-3.032-4.15-5.912-7.674s-4.624-5.287-5.23-5.287c-.152 0-1.288.607-3.411 1.819-2.122 1.213-4.358 2.502-6.707 3.866-2.35 1.364-3.676 2.122-3.979 2.274-.303.227-.455.492-.455.795 0 1.895 1.933 7.125 5.798 15.689-1.288 1.744-2.425 3.714-3.411 5.912-11.293 1.137-16.939 2.312-16.939 3.525v15.916c0 1.213 5.646 2.387 16.939 3.524.91 2.047 2.047 4.017 3.411 5.912-3.865 8.565-5.798 13.794-5.798 15.689 0 .303.152.568.455.796 9.246 5.381 13.945 8.072 14.097 8.072.606 0 2.35-1.781 5.23-5.344 2.88-3.562 4.85-6.139 5.912-7.73 1.515.151 2.652.227 3.41.227s1.895-.076 3.411-.227c1.061 1.591 3.031 4.168 5.912 7.73 2.88 3.563 4.623 5.344 5.229 5.344.152 0 4.851-2.691 14.098-8.072.303-.228.454-.493.454-.796 0-1.895-1.932-7.124-5.798-15.689 1.364-1.895 2.501-3.865 3.411-5.912 11.293-1.137 16.939-2.311 16.939-3.524v-15.917c0-1.212-5.646-2.387-16.939-3.524-.985-2.198-2.122-4.168-3.411-5.912 3.866-8.564 5.798-13.794 5.798-15.689 0-.303-.151-.568-.454-.795-9.095-5.306-13.795-7.959-14.098-7.959zm-14.552 27.286c3.941 0 7.352 1.44 10.232 4.32 2.88 2.88 4.32 6.291 4.32 10.232 0 4.017-1.421 7.446-4.263 10.288-2.842 2.843-6.272 4.264-10.289 4.264-4.017 0-7.446-1.421-10.289-4.264-2.842-2.842-4.263-6.271-4.263-10.288 0-3.941 1.44-7.352 4.32-10.232 2.88-2.88 6.291-4.32 10.232-4.32zm-101.864 43.656c8.034 0 14.893 2.842 20.577 8.527 5.685 5.684 8.527 12.543 8.527 20.577 0 8.034-2.842 14.893-8.527 20.578-5.684 5.684-12.543 8.526-20.577 8.526-8.034 0-14.894-2.842-20.578-8.526-5.684-5.685-8.527-12.544-8.527-20.578 0-8.034 2.843-14.893 8.527-20.577 5.684-5.685 12.544-8.527 20.578-8.527z"/></g></svg>

<?xml version="1.0" encoding="UTF-8"?>
<!DOCTYPE svg PUBLIC "-//W3C//DTD SVG 1.1//EN" "http://www.w3.org/Graphics/SVG/1.1/DTD/svg11.dtd">
<svg version="1.1" xmlns="http://www.w3.org/2000/svg" xmlns:xlink="http://www.w3.org/1999/xlink" x="0px" y="0px" width="480" height="420" viewBox="0, 0, 480, 420">
  <g id="Layer 1">
    <path d="M46.607,241.711 C60,231 240.234,74.678 240.234,74.678 L432.666,240.906 C432.666,240.906 440.926,249.129 449.213,244.189 C457.5,239.25 470.863,225.195 472.057,222.598 C473.25,220 473.324,215.094 469.412,208.922 C465.5,202.75 263.082,29.699 251.541,19.6 C240,9.5 228.928,20.143 228.928,20.143 C228.928,20.143 30.988,191.406 17.494,203.203 C-1,217 12.775,226.598 12.775,226.598 C12.775,226.598 25.451,241.145 25.451,241.145 C25.451,241.145 33.215,252.422 46.607,241.711 z" fill="#282832"/>
    <path d="M341.374,75.1 L399.473,124.27 C399.473,124.27 400.148,74.383 399.574,58.358 C399,42.333 385.557,43.646 385.557,43.646 L357.073,43.283 C357.073,43.283 341.693,42.383 341.346,56.025 C341,69.667 341.374,75.1 341.374,75.1 z" fill="#282832"/>
    <path d="M240.354,99.279 L414.141,250.529 C414.141,250.529 414.667,341 414.333,375 C414,409 378.96,405.764 378.96,405.764 L101.949,405.547 C101.949,405.547 66.289,411.776 66.145,370.555 C66,329.333 66.057,250.396 66.057,250.396 z M207.244,230.777 L186.098,230.777 C184.354,230.777 183.217,231.686 182.687,233.505 C181.777,236.992 180.906,242.828 180.072,251.013 C176.813,252.074 173.895,253.287 171.318,254.651 L158.244,244.419 C157.486,243.889 156.69,243.623 155.857,243.623 C154.416,243.623 151.423,245.859 146.875,250.331 C142.328,254.803 139.22,258.175 137.553,260.449 C137.022,261.056 136.757,261.814 136.757,262.723 C136.757,263.405 137.022,264.163 137.553,264.997 C141.797,270.075 145.208,274.433 147.785,278.071 C146.193,281.178 144.98,284.058 144.147,286.711 L126.525,289.44 C125.843,289.516 125.236,289.913 124.706,290.633 C124.175,291.353 123.91,292.092 123.91,292.85 L123.91,313.883 C123.91,314.716 124.175,315.455 124.706,316.1 C125.236,316.744 125.881,317.104 126.639,317.18 L143.919,319.908 C144.829,322.788 146.155,325.896 147.898,329.231 C146.686,330.898 144.905,333.21 142.555,336.166 C140.205,339.121 138.652,341.13 137.894,342.191 C137.363,342.949 137.098,343.669 137.098,344.351 C137.098,346.397 142.555,352.461 153.469,362.541 C154.227,363.148 155.023,363.451 155.857,363.451 C156.842,363.451 157.6,363.185 158.13,362.655 L171.545,352.537 C174.653,354.128 177.495,355.303 180.072,356.061 L182.687,373.455 C182.763,374.213 183.142,374.876 183.824,375.445 C184.506,376.013 185.264,376.297 186.098,376.297 L207.243,376.297 C208.987,376.297 210.124,375.388 210.654,373.569 C211.564,370.007 212.435,364.133 213.269,355.947 C216.301,355.038 219.219,353.863 222.023,352.423 L235.097,362.655 C235.855,363.185 236.651,363.451 237.485,363.451 C238.925,363.451 241.899,361.196 246.409,356.686 C250.919,352.177 254.045,348.785 255.788,346.511 C256.319,345.981 256.584,345.261 256.584,344.351 C256.584,343.593 256.319,342.835 255.788,342.077 C251.544,336.999 248.133,332.641 245.556,329.003 C247.148,325.896 248.361,323.016 249.194,320.363 L266.816,317.634 C267.498,317.559 268.105,317.161 268.635,316.441 C269.166,315.721 269.431,314.982 269.431,314.224 L269.431,293.191 C269.431,292.358 269.166,291.619 268.635,290.975 C268.105,290.33 267.46,289.932 266.702,289.781 L249.422,287.166 C248.588,284.589 247.3,281.482 245.556,277.844 C246.693,276.176 248.399,273.902 250.672,271.022 C252.946,268.142 254.538,266.096 255.447,264.883 C255.978,264.125 256.243,263.405 256.243,262.723 C256.243,260.677 250.786,254.613 239.872,244.533 C239.114,243.927 238.318,243.623 237.485,243.623 C236.575,243.623 235.817,243.889 235.211,244.419 L221.796,254.537 C218.688,252.946 215.846,251.771 213.269,251.013 L210.654,233.619 C210.578,232.861 210.199,232.198 209.517,231.629 C208.835,231.061 208.077,230.777 207.244,230.777 z z M313.087,203.491 L312.405,203.719 C309.298,206.826 305.811,211.071 301.946,216.452 C300.43,216.3 299.293,216.225 298.535,216.225 C297.777,216.225 296.64,216.3 295.125,216.452 C294.063,214.86 292.093,212.302 289.213,208.778 C286.333,205.254 284.589,203.491 283.983,203.491 C283.831,203.491 282.695,204.098 280.572,205.31 C278.45,206.523 276.214,207.812 273.865,209.176 C271.515,210.54 270.189,211.298 269.886,211.45 C269.583,211.677 269.431,211.942 269.431,212.245 C269.431,214.14 271.364,219.37 275.229,227.934 C273.941,229.678 272.804,231.648 271.818,233.846 C260.525,234.983 254.879,236.158 254.879,237.371 L254.879,253.287 C254.879,254.5 260.525,255.674 271.818,256.811 C272.728,258.858 273.865,260.828 275.229,262.723 C271.364,271.288 269.431,276.517 269.431,278.412 C269.431,278.715 269.583,278.98 269.886,279.208 C279.132,284.589 283.831,287.28 283.983,287.28 C284.589,287.28 286.333,285.499 289.213,281.936 C292.093,278.374 294.063,275.797 295.125,274.206 C296.64,274.357 297.777,274.433 298.535,274.433 C299.293,274.433 300.43,274.357 301.946,274.206 C303.007,275.797 304.977,278.374 307.858,281.936 C310.738,285.499 312.481,287.28 313.087,287.28 C313.239,287.28 317.938,284.589 327.185,279.208 C327.488,278.98 327.639,278.715 327.639,278.412 C327.639,276.517 325.707,271.288 321.841,262.723 C323.205,260.828 324.342,258.858 325.252,256.811 C336.545,255.674 342.191,254.5 342.191,253.287 L342.191,237.37 C342.191,236.158 336.545,234.983 325.252,233.846 C324.267,231.648 323.13,229.678 321.841,227.934 C325.707,219.37 327.639,214.14 327.639,212.245 C327.639,211.942 327.488,211.677 327.185,211.45 C318.09,206.144 313.39,203.491 313.087,203.491 z z M298.535,230.777 C302.476,230.777 305.887,232.217 308.767,235.097 C311.647,237.977 313.087,241.388 313.087,245.329 C313.087,249.346 311.666,252.775 308.824,255.617 C305.982,258.46 302.552,259.881 298.535,259.881 C294.518,259.881 291.089,258.46 288.246,255.617 C285.404,252.775 283.983,249.346 283.983,245.329 C283.983,241.388 285.423,237.977 288.303,235.097 C291.183,232.217 294.594,230.777 298.535,230.777 z z M196.671,274.433 C204.705,274.433 211.564,277.275 217.248,282.96 C222.933,288.644 225.775,295.503 225.775,303.537 C225.775,311.571 222.933,318.43 217.248,324.115 C211.564,329.799 204.705,332.641 196.671,332.641 C188.637,332.641 181.777,329.799 176.093,324.115 C170.409,318.43 167.566,311.571 167.566,303.537 C167.566,295.503 170.409,288.644 176.093,282.96 C181.777,277.275 188.637,274.433 196.671,274.433 z z" fill="#282832"/>
  </g>
  <defs/>
</svg>
